X:3906
L:1/8
M:4/4
K:Dmin
 G, |:"Dm" A,2 DA, FA,DA, |"Bb" B,2 DB, FB,DB, |"C" C2 EC GCEG |1,3"Am" FEDC DCA,G, :|2,4 
"Am" FEDC"Dm" D4 |]:"Dm" dcAG F2 D2 | dcAG F2 D2 |"C" cE (3EEE cEdE | cE (3EEE c=Bc^c | 
"Dm" dcAG F2 D2 | dcAG F2 D2 |"Bb" B,3 A, B,CDE |"Am" FEDC"Dm" D4 :|

